src/custom/pause.svg

<svg width="32" height="32" viewBox="0 0 32 32" xmlns="http://www.w3.org/2000/svg">
<path d="M13.5 10C12.675 10 12 10.675 12 11.5V20.5C12 21.3312 12.675 22 13.5 22C14.325 22 15 21.3312 15 20.5V11.5C15 10.675 14.3313 10 13.5 10Z" />
<path d="M17 11.5C17 10.675 17.675 10 18.5 10C19.3312 10 20 10.675 20 11.5V20.5C20 21.3281 19.3281 22 18.5 22C17.6719 22 17 21.3281 17 20.5V11.5Z" />
<path fill-rule="evenodd" clip-rule="evenodd" d="M16 32C24.8366 32 32 24.8366 32 16C32 7.16344 24.8366 0 16 0C7.16344 0 0 7.16344 0 16C0 24.8366 7.16344 32 16 32ZM16 30C23.732 30 30 23.732 30 16C30 8.26801 23.732 2 16 2C8.26801 2 2 8.26801 2 16C2 23.732 8.26801 30 16 30Z" />
</svg>

<svg xmlns="http://www.w3.org/2000/svg" viewBox="0 0 32 32">
  <path d="M13.5 10c-.825 0-1.5.675-1.5 1.5v9a1.5 1.5 0 0 0 3 0v-9a1.5 1.5 0 0 0-1.5-1.5ZM17 11.5a1.5 1.5 0 0 1 3 0v9a1.5 1.5 0 0 1-3 0v-9Z"/>
  <path fill-rule="evenodd" d="M16 32c8.837 0 16-7.163 16-16S24.837 0 16 0 0 7.163 0 16s7.163 16 16 16Zm0-2c7.732 0 14-6.268 14-14S23.732 2 16 2 2 8.268 2 16s6.268 14 14 14Z" clip-rule="evenodd"/>
</svg>
